assets/images/ico_done.svg

<svg width="74" height="74" viewBox="0 0 74 74" fill="none" xmlns="http://www.w3.org/2000/svg">
<path d="M37 0C29.6821 0 22.5285 2.15828 16.4439 6.20192C10.3593 10.2456 5.61692 15.9929 2.81647 22.7173C0.0160316 29.4416 -0.716692 36.8408 0.710961 43.9793C2.13861 51.1178 5.66252 57.675 10.8371 62.8215C16.0116 67.9681 22.6044 71.473 29.7817 72.8929C36.959 74.3128 44.3984 73.5841 51.1593 70.7988C57.9202 68.0135 63.6988 63.2967 67.7644 57.245C71.83 51.1933 74 44.0784 74 36.8C73.9898 27.0431 70.0883 17.6888 63.1517 10.7897C56.2151 3.89054 46.8099 0.0101475 37 0V0ZM37 71.3C30.1395 71.3 23.433 69.2766 17.7287 65.4857C12.0243 61.6948 7.57836 56.3066 4.95295 50.0026C2.32753 43.6985 1.6406 36.7617 2.97903 30.0694C4.31745 23.377 7.62112 17.2297 12.4722 12.4048C17.3234 7.5799 23.5041 4.2941 30.2328 2.96291C36.9615 1.63172 43.936 2.31493 50.2743 4.92616C56.6127 7.53738 62.0301 11.9593 65.8416 17.6328C69.6531 23.3063 71.6875 29.9765 71.6875 36.8C71.6773 45.9469 68.0195 54.7162 61.5165 61.184C55.0136 67.6518 46.1966 71.2899 37 71.3Z" fill="#2EBBE1"/>
<path d="M53.4187 24.4412L31.026 46.7205L20.5812 36.3245C20.362 36.1214 20.0721 36.0108 19.7726 36.0161C19.473 36.0213 19.1872 36.142 18.9754 36.3527C18.7635 36.5634 18.6422 36.8477 18.6369 37.1456C18.6316 37.4435 18.7428 37.7319 18.947 37.9499L30.2089 49.1585C30.4257 49.3739 30.7196 49.4949 31.026 49.4949C31.3324 49.4949 31.6263 49.3739 31.8431 49.1585L55.0529 26.0665C55.2571 25.8485 55.3683 25.5602 55.363 25.2623C55.3577 24.9644 55.2364 24.6801 55.0245 24.4694C54.8127 24.2587 54.5269 24.138 54.2273 24.1327C53.9278 24.1275 53.6379 24.2381 53.4187 24.4412Z" fill="#2EBBE1"/>
</svg>

<svg width="74" height="74" fill="none" xmlns="http://www.w3.org/2000/svg"><path d="M37 0a37.143 37.143 0 00-20.556 6.202A36.844 36.844 0 002.816 22.717 36.615 36.615 0 00.711 43.98a36.738 36.738 0 0010.126 18.843 37.062 37.062 0 0018.945 10.07A37.187 37.187 0 0051.159 70.8a36.957 36.957 0 0016.605-13.554A36.659 36.659 0 0074 36.8a36.738 36.738 0 00-10.848-26.01A37.14 37.14 0 0037 0zm0 71.3a34.822 34.822 0 01-19.271-5.814A34.54 34.54 0 014.953 50.003a34.327 34.327 0 01-1.974-19.934 34.443 34.443 0 019.493-17.664 34.747 34.747 0 0117.76-9.442 34.863 34.863 0 0120.042 1.963 34.647 34.647 0 0115.568 12.707A34.368 34.368 0 0171.688 36.8a34.444 34.444 0 01-10.172 24.384A34.821 34.821 0 0137 71.3z" fill="#2EBBE1"/><path d="M53.419 24.441l-22.393 22.28-10.445-10.396a1.16 1.16 0 00-1.606.028 1.147 1.147 0 00-.028 1.597l11.262 11.208a1.16 1.16 0 001.634 0l23.21-23.091a1.146 1.146 0 00-.028-1.598 1.16 1.16 0 00-1.606-.028z" fill="#2EBBE1"/></svg>
